X:1
T:Title
%%score { ( 1 3 ) | 2 }
L:1/8
M:4/4
K:D
V:1 treble nm="Grand Piano"
V:3 treble 
V:2 bass 
V:1
 z4 z2[Q:1/4=100] [FA]>[FA] | [Fd]>[Fd] [Ac]>[GB] [FA]2 [FA]>[FA] | [GB]2 [GB]2 [FA]2 [FA]>[FA] | %3
 ^G2 AA B2 [=Fd]2 | [Ec]6 [FA]>[FA] | [Fd]>[Fd] [Ac]>[GB] [FA]2 [FA]>[FA] | B2 B2 [FA]2 [FA]>[FA] | %7
 B2 B2 A>d [Ec]>[Ec] |[M:3/4] [Fd]6 |[M:1/4] A>A |[M:4/4] d6 z2 | F2 z2 z4 | B2 A2 ^GB [Gd]2 | %13
 [Ac]6 A>A | d6 z2 | F2 z2 z4 | B2 Be d2 [Ec]2 |[M:3/4] [Fd]6 |] %18
V:2
 z4 z2 [D,A,]>[D,A,] | [D,A,]>[D,A,] [D,D]>[D,D] [D,D]2 [D,D]>[D,D] | %2
 [G,D]2 [G,D]2 [D,D]2 [D,D]>[D,D] | [B,D=F]2 [A,D^F][A,DF] [G,B,=F]2[K:bass] [E,^G,]2 | %4
 [A,,A,]6 [D,A,]>[D,A,] | [D,A,]>[D,A,] [D,D]>[D,D] [D,D]2 [D,D]>[D,D] | %6
 [G,DG]2 [G,G]2[K:bass] [D,D]2 [D,D]>[D,D] | %7
 [G,DG]2 [G,DG]2 [A,DF]>[A,DF][K:bass] [A,,A,]>[A,,A,] |[M:3/4] [D,A,]6 |[M:1/4] z2 | %10
[M:4/4] z2 [D,A,]>[D,A,] [D,A,]>[D,A,] [D,D]>[D,D] | [D,D]2 A,,>A,, D,2 [D,D]>[D,D] | %12
 [G,DG]2 [F,D]2 [E,DE]2 [E,B,]2 | [A,,A,]6 z2 | z2 [D,A,]>[D,A,] [D,A,]>[D,A,] [D,D]>[D,D] | %15
 [D,D]2 A,,>A,, D,2 [D,D]>[D,D] | [G,DG]2 [G,DG][G,B,G] [A,F]2[K:bass] [A,,A,]2 |[M:3/4] [D,A,]6 |] %18
V:3
 x8 | x8 | x8 | x8 | x8 | x8 | x8 | x8 |[M:3/4] x6 |[M:1/4] x2 |[M:4/4] z2 F>F F>[Fd] [Ac]>[GB] | %11
 A2- [CEA-]>[CEA-] [DFA]2 [FA]>[FA] | x8 | x8 | z2 F>F F>[Fd] [Ac]>[GB] | %15
 A2- [CEA-]>[CEA-] [DFA]2 [FA]>[FA] | x8 |[M:3/4] x6 |] %18

